assets/icons/icon-email-light.svg

<svg fill="none" height="32" viewBox="0 0 32 32" width="32" xmlns="http://www.w3.org/2000/svg"><g fill="#fff"><path d="m9.64697 12.0736c-.2111 0-.34323.1249-.34323.3433 0 .1845.14219.2654.27462.3408.01534.0087.03054.0174.04538.0261.39546.2326 1.53006.949 2.73316 1.7087 1.691 1.0676 3.5173 2.2207 3.6168 2.2361.1396.0212.3218-.104.4325-.1801.0105-.0072.0203-.014.0294-.0202.5792-.3697 1.1601-.7455 1.7423-1.1221 1.2317-.7968 2.469-1.5972 3.7065-2.3514.0375-.0229.0776-.0467.119-.0712.2788-.1653.6165-.3654.6165-.5667 0-.2184-.1316-.3433-.3433-.3433-.1118 0-3.566 2.2261-4.9522 3.1194-.2518.1623-.4353.2805-.5182.3335-.1332.0893-.2644.1707-.3943.2513-.1278.0794-.2545.158-.3809.2427l-.8042-.5002c-.0616-.0378-.3124-.1957-.6762-.4248-1.4733-.9277-4.79891-3.0219-4.90363-3.0219z"/><path clip-rule="evenodd" d="m32 16c0 8.8366-7.1634 16-16 16-8.83656 0-16-7.1634-16-16 0-8.83656 7.16344-16 16-16 8.8366 0 16 7.16344 16 16zm-24 4.6878v-9.0601c0-.5306.30245-.961.85781-.961h14.13989c.5347 0 .8578.4201.8578.961v9.0601c0 .4883-.3613.8924-.8578.8924h-14.13989c-.49704 0-.85781-.3995-.85781-.8924z" fill-rule="evenodd"/></g></svg>

<svg width="32" height="32" viewBox="0 0 32 32" fill="none" xmlns="http://www.w3.org/2000/svg">
<path d="M9.64697 12.0736C9.43587 12.0736 9.30374 12.1985 9.30374 12.4169C9.30374 12.6014 9.44593 12.6823 9.57836 12.7577C9.5937 12.7664 9.6089 12.7751 9.62374 12.7838C10.0192 13.0164 11.1538 13.7328 12.3569 14.4925C14.0479 15.5601 15.8742 16.7132 15.9737 16.7286C16.1133 16.7498 16.2955 16.6246 16.4062 16.5485C16.4167 16.5413 16.4265 16.5345 16.4356 16.5283C17.0148 16.1586 17.5957 15.7828 18.1779 15.4062C19.4096 14.6094 20.6469 13.809 21.8844 13.0548C21.9219 13.0319 21.962 13.0081 22.0034 12.9836C22.2822 12.8183 22.6199 12.6182 22.6199 12.4169C22.6199 12.1985 22.4883 12.0736 22.2766 12.0736C22.1648 12.0736 18.7106 14.2997 17.3244 15.193C17.0726 15.3553 16.8891 15.4735 16.8062 15.5265C16.673 15.6158 16.5418 15.6972 16.4119 15.7778C16.2841 15.8572 16.1574 15.9358 16.031 16.0205L15.2268 15.5203C15.1652 15.4825 14.9144 15.3246 14.5506 15.0955C13.0773 14.1678 9.75169 12.0736 9.64697 12.0736Z" fill="white"/>
<path fill-rule="evenodd" clip-rule="evenodd" d="M32 16C32 24.8366 24.8366 32 16 32C7.16344 32 0 24.8366 0 16C0 7.16344 7.16344 0 16 0C24.8366 0 32 7.16344 32 16ZM8 20.6878V11.6277C8 11.0971 8.30245 10.6667 8.85781 10.6667H22.9977C23.5324 10.6667 23.8555 11.0868 23.8555 11.6277V20.6878C23.8555 21.1761 23.4942 21.5802 22.9977 21.5802H8.85781C8.36077 21.5802 8 21.1807 8 20.6878Z" fill="white"/>
</svg>
